src/icons/facebook.svg

<svg height="32" viewBox="0 0 32 32" width="32" xmlns="http://www.w3.org/2000/svg"><path d="m20.155 10.656-1.506.001c-1.181 0-1.41.561-1.41 1.384v1.816h2.817l-.367 2.845h-2.45v7.298h-2.937v-7.298h-2.456v-2.845h2.456v-2.097c0-2.435 1.487-3.76 3.658-3.76 1.04 0 1.934.077 2.195.112zm-4.155-10.656c-8.836 0-16 7.163-16 16 0 8.836 7.164 16 16 16 8.837 0 16-7.164 16-16 0-8.837-7.163-16-16-16z" fill="#9b9b9b" fill-rule="evenodd" opacity=".513644"/></svg>

<?xml version="1.0" encoding="UTF-8"?>
<svg width="32px" height="32px" viewBox="0 0 32 32" version="1.1" xmlns="http://www.w3.org/2000/svg" xmlns:xlink="http://www.w3.org/1999/xlink">
    <!-- Generator: Sketch 46.2 (44496) - http://www.bohemiancoding.com/sketch -->
    <title>icon_facebook</title>
    <desc>Created with Sketch.</desc>
    <defs></defs>
    <g id="Page-1" stroke="none" stroke-width="1" fill="none" fill-rule="evenodd" opacity="0.513643569">
        <g id="MH-Home-2" transform="translate(-1010.000000, -3352.000000)" fill="#9B9B9B">
            <g id="Footer" transform="translate(0.000000, 3328.000000)">
                <g id="Group-2" transform="translate(1010.000000, 24.000000)">
                    <g id="icon_facebook">
                        <path d="M20.155,10.656 L18.649,10.657 C17.468,10.657 17.239,11.218 17.239,12.041 L17.239,13.857 L20.056,13.857 L19.689,16.702 L17.239,16.702 L17.239,24 L14.302,24 L14.302,16.702 L11.846,16.702 L11.846,13.857 L14.302,13.857 L14.302,11.76 C14.302,9.325 15.789,8 17.96,8 C19,8 19.894,8.077 20.155,8.112 L20.155,10.656 Z M16,0 C7.164,0 0,7.163 0,16 C0,24.836 7.164,32 16,32 C24.837,32 32,24.836 32,16 C32,7.163 24.837,0 16,0 L16,0 Z" id="Fill-183"></path>
                    </g>
                </g>
            </g>
        </g>
    </g>
</svg>
